X:1
T:Word of God
T:Word of God
T:William Marion Runyan
T:William Marion Runyan, 1919
T:Public Domain Courtesy of the Cyber Hymnal™
T:Public Domain Courtesy of the Cyber Hymnal™
C:William Marion Runyan
Z:Public Domain
Z:Courtesy of the Cyber Hymnal™
%%score ( 1 2 ) ( 3 4 )
L:1/8
Q:1/4=135
M:6/4
K:F
V:1 treble 
V:2 treble 
V:3 bass 
V:4 bass 
V:1
 (z2 [CF]2) [FAc]2 (z2 [CE]2) [B,FB]2 | z2 [CF]2 [CE]2 (z2 [A,C]2) [A,CF]2 | %2
w: * 1.~Word * of|* God, * O|
w: * 2.~Fold- * ed|* in * thy|
w: * 3.~Word * of|* God, * thy|
w: * 4.~Word * of|* God, * thy|
 z2 [A,C]2 [A,CF]2 (z2 [CA]2) [CFA]2 | z2 [=B,D]2 [B,D]2 (z2 [CF]2 [CEG]2) | %4
w: * sac- * red|* trea- * *|
w: * sac- * red|* pag- * *|
w: * theme * is|* Je- * *|
w: * o- * pen|* pag- * *|
 z2 [CF]2 [FAc]2 (z2 [CE]2) [B,FB]2 | z2 [CF]2 [CEG]2 (z2 [CFA]2) [A,CF]2 | %6
w: * sure! * Sage|* and * shep-|
w: * es, * Where|* the * eyes|
w: * sus, * Je-|* sus * and|
w: * es * Call|* to * ser-|
 [CEG]2 [CEA]2 [CEB]2 (z2 [CFA]2) [A,DF]2 | z2 [=B,D]2 [_B,EG]2 [A,CF]6 || %8
w: * * herd, * king|* and priest,|
w: * * of * men|* may see,|
w: * * His * dy-|* ing love,|
w: * * vice, * ban-|* ish fear;|
"^Refrain" [FA]4 [FA]2 [Fc]6 | [FB]4 F2 [FA]6 x4 | [Fd]4 [Fd]2 [Fc]4 F2 | [FA]4 [FG]2 [EG]6 x4 | %12
w: * Moved by|God’s own Ho-|ly Spir- it, Brought|to men thy|
w: * Is the|wis- dom of|the ag- es Giv-|en for our|
w: * How from|sin He full-|y frees us, How|He points to|
w: * None can|i- dle be,|or list- less, If|thy great com-|
 [FA]4 [FA]2 [Gc]4 [Fc]2 | [FB]4 F2 [FA]6 | [Fd]4 [^Fd]2 [Gd]4 [Gd]2 | [Ge]4 [Fd]2 ([Ed]4 [Gc]2) | %16
w: won- drous feast. *||||
w: li- ber- ty. Word|of God, Word|of God, Heav- en’s|light a- bides *|
w: realms a- bove. *||||
w: mands they hear. *||||
 (c2 d2) [Ge]2 [Af]4 [^G=B]2 | c4 [CE]2 [CF]6 |] %18
w: ||
w: in * thee; Through sin’s|dark- ness all|
w: ||
w: ||
V:2
 A4 G4 x4 | A4 G4 x4 | F4 c4 x4 | G4 A4 x4 | A4 G4 x4 | A4 c4 x4 | x6 c4 x2 | F4 x8 || x12 | %9
 x4 F2 x10 | x10 F2 | x16 | x12 | x4 F2 x6 | x12 | x12 | F4 x8 | (A2 E2) x8 |] %18
V:3
 F,4 F,2 E,4 D,2 | C,4 B,,2 A,,4 A,,2 | F,,4 F,,2 F,,4 F,,2 | G,,4 G,,2 C,4 C,2 | F,4 F,2 E,4 D,2 | %5
w: ~ ~ ~ ~|~ ~ ~ ~|~ ~ ~ ~|~ ~ ~ ~|~ ~ ~ ~|
 C,4 B,,2 A,,4 A,,2 | C,4 B,,2 A,,4 D,2 | G,,4 C,2 F,,6 || [F,C]4 [F,C]2 [F,A,]4 [A,,C]2 | %9
w: ~ ~ ~ ~|~ ~ ~ ~|~ ~ ~|~ ~ ~ Blest|
 [B,,D]4 [B,,D]2 z2 x8 | [B,,B,]4 [D,B,]2 [F,A,]4 [D,A,]2 | [G,,=B,]4 [G,,B,]2 z2 x8 | %12
w: |||
 [F,,F,C]4 [F,C]2 [E,C]4 [A,,C]2 | [B,,D]4 [B,,D]2 [F,C]6 | B,4 [A,C]2 [G,B,]2 [B,,G,]2 [D,B,]2 | %15
w: |||
 [G,C]4 [G,=B,]2 _B,6 | (A,2 B,2) [E,B,]2 [D,D]4 [_D,F]2 | (F2 C2) [C,B,]2 [F,,F,A,]6 |] %18
w: |||
V:4
 x12 | x12 | x12 | x12 | x12 | x12 | x12 | x12 || x12 | x6 [F,C]6 F,,2 A,,2 | x12 | %11
 x6 [C,C]6 =B,,2 G,,2 | x12 | x12 | B,4 x8 | x6 (C,4 E,2) | F,4 x8 | C,4 x8 |] %18

